X:57
T:Steyrer Tanz in G, nr. 16
C:traditionell
R:Steirer
A:Hallstatt, Salzkammergut
B:Corpus Musicae Popularis Austriacae (COMPA), 5.Band: J.M.Schmalnauer " Tanz Musik", Verlag Boehlau, Wien 1996
S:manuscript des Johann Michael Schmalnauer um 1820
N:im der quelle in G
Z:abc transcription Simon Wascher
F:http://simonwascher.info/TradArchiv/
M:3/4
L:1/8
K:G
V:1
%violino 1mo
(db) (g3 B | ca) f4 | cafdcA | GBBd g2 |\
(db) (g3 B | ca) f4 | c'a f2 df | g6 :|
|: dbgBgB | cafAfA | cafdcA | GBBd g2 |\
dbgBgB | cafAfA | c'a f2 df | g6 :|
V:2
%violino 2do
dd' (b3 g) | dc' a4 | dc'afdc | Bddg b2 |\
dd' (b3 g) | dc' a4 | dc'adac' | b4 :|
|: dd' bdbd | dc' adad | dc' afdc | Bddggb |\
dd' bdbd | dc' adad | dc' afdc | B4 :|
